www/images/swipe-right@2x.svg

<svg fill="none" height="55" viewBox="0 0 55 55" width="55" xmlns="http://www.w3.org/2000/svg"><path d="m39.27 10.725c-.1542-.1487-.3601-.2316-.5743-.2311-.2142.0004-.4198.0841-.5734.2334s-.2431.3525-.2496.5666.0706.4223.2148.5806l1.1 1.144h-4.345c-.2188 0-.4286.0869-.5833.2416-.1548.1548-.2417.3646-.2417.5834s.0869.4286.2417.5834c.1547.1547.3645.2416.5833.2416h4.3505l-1.1 1.144c-.1442.1583-.2213.3665-.2148.5806s.096.4173.2496.5666.3592.233.5734.2334c.2142.0005.4201-.0824.5743-.2311l2.4695-2.541c.1495-.154.2332-.3601.2332-.5748 0-.2146-.0837-.4207-.2332-.5747z" fill="#000"/><path d="m32.3895 23.9965c-.2052-.4827-.5487-.8938-.9872-1.1815-.4385-.2878-.9523-.4393-1.4768-.4355l2.3045-5.7035c.2416-.5904.2623-1.2482.0581-1.8526-.2042-.6045-.6196-1.115-1.1698-1.4379s-1.1984-.4365-1.8257-.3201c-.6272.1165-1.1914.4552-1.5891.9541-.3013-.33-.6814-.5781-1.1047-.7211-.4234-.143-.8761-.1763-1.3158-.0966s-.8519.2697-1.1981.5522-.6151.6482-.7814 1.063l-3.6795 9.0805-.0385-.2035c.0016-.0312.0016-.0624 0-.0935-.1074-.3348-.2815-.6443-.5116-.9101-.2302-.2658-.5117-.4822-.8277-.6363-.316-.1542-.6599-.2428-1.011-.2606-.3512-.0178-.7023.0356-1.0322.157-.6166.2207-1.1281.6645-1.4336 1.2439-.3055.5793-.3827 1.2521-.2164 1.8856l2.024 10.67-1.419 3.5145c-.0447.1019-.0682.2118-.0693.323-.0011.1113.0203.2216.0629.3244.0427.1027.1057.1958.1852.2736.0796.0778.174.1387.2777.179l10.1145 4.0865c.1019.0446.2118.0682.323.0693.1113.0011.2216-.0203.3244-.063.1027-.0426.1958-.1056.2736-.1851.0778-.0796.1387-.174.179-.2777l1.4135-3.498 3.014-1.9965c.1436-.0923.255-.2268.319-.385l3.487-8.6295c.1309-.3236.1967-.6698.1937-1.0188s-.0747-.694-.2111-1.0153c-.1364-.3212-.3347-.6125-.5837-.8571s-.5437-.4377-.8674-.5683l-.088-.0385c-.3355-.1338-.6949-.1974-1.056-.187.1934-.5896.1719-1.2287-.0605-1.804zm.5005 3.5035.088.0385c.2461.1012.4421.2957.5451.541.1031.2453.1049.5214.0049.768l-3.3825 8.404-3.047 1.947c-.1436.0922-.2551.2267-.319.385l-1.2045 2.9755-8.58-3.465 1.199-2.9755c.0589-.1466.0742-.307.044-.462l-2.068-10.945s0-.0495 0-.0715c-.0662-.2335-.0418-.4833.0684-.6995.1101-.2162.2978-.3828.5256-.4665.2357-.0879.4965-.0795.7261.0234.2295.1029.4093.2921.5004.5266l.55 2.915c.0341.1741.1235.3326.2549.4519s.2977.1931.4743.2104.3541-.0228.5061-.1144.2704-.2297.3377-.3939l4.7245-11.6875c.1023-.2465.2979-.4426.544-.5456.2462-.103.5231-.1046.7705-.0044.2461.1012.4421.2957.5451.541.1031.2453.1049.5214.0049.768l-.66 1.65-3.102 7.6615c-.0707.2004-.0614.4204.0261.6142.0875.1937.2464.3461.4436.4256.1971.0794.4174.0797.6147.0007.1974-.0789.3566-.231.4446-.4245l3.751-9.2895.6105-1.507c.0999-.248.2943-.4461.5403-.5508s.5235-.1074.7714-.0075c.248.1.4462.2943.5508.5403.1047.246.1074.5235.0075.7715l-4.3615 10.791c-.0697.1822-.0725.3832-.008.5673.0645.1842.1922.3395.3603.4384.1682.0989.3659.135.5582.1019s.3666-.1332.492-.2826c.05-.0616.0908-.1301.121-.2035l1.1385-2.816c.0501-.1225.1238-.234.217-.3279.0932-.094.2041-.1687.3262-.2198s.253-.0776.3854-.078.2635.0253.3859.0757c.2461.1012.4421.2957.5451.541.1031.2453.1049.5214.0049.768l-1.606 3.971c-.0831.2042-.0818.4331.0038.6363.0857.2032.2485.364.4527.4472.2042.0831.4331.0818.6363-.0039.2032-.0856.3641-.2484.4472-.4526l.352-.8525v-.033l.429-1.067c.1012-.2461.2957-.4421.541-.5452.2453-.103.5214-.1048.768-.0048z" fill="#000"/><path d="m32.89 27.5.088.0385c.2461.1012.4421.2957.5451.541.1031.2453.1049.5214.0049.768l-3.3825 8.404-3.047 1.947c-.1436.0922-.2551.2267-.319.385l-1.2045 2.9755-8.58-3.465 1.199-2.9755c.0589-.1466.0742-.307.044-.462l-2.068-10.945s0-.0495 0-.0715c-.0662-.2335-.0418-.4833.0684-.6995.1101-.2162.2978-.3828.5256-.4665.2357-.0879.4965-.0795.7261.0234.2295.1029.4093.2921.5004.5266l.55 2.915c.0341.1741.1235.3326.2549.4519s.2977.1931.4743.2104.3541-.0228.5061-.1144.2704-.2297.3377-.3939l4.7245-11.6875c.1023-.2465.2979-.4426.544-.5456.2462-.103.5231-.1046.7705-.0044.2461.1012.4421.2957.5451.541.1031.2453.1049.5214.0049.768l-.66 1.65-3.102 7.6615c-.0707.2004-.0614.4204.0261.6142.0875.1937.2464.3461.4436.4256.1971.0794.4174.0797.6147.0007.1974-.0789.3566-.231.4446-.4245l3.751-9.2895.6105-1.507c.0999-.248.2943-.4461.5403-.5508s.5235-.1074.7714-.0075c.248.1.4462.2943.5508.5403.1047.246.1074.5235.0075.7715l-4.3615 10.791c-.0697.1822-.0725.3832-.008.5673.0645.1842.1922.3395.3603.4384.1682.0989.3659.135.5582.1019s.3666-.1332.492-.2826c.05-.0616.0908-.1301.121-.2035l1.1385-2.816c.0501-.1225.1238-.234.217-.3279.0932-.094.2041-.1687.3262-.2198.1221-.051.253-.0776.3854-.078s.2635.0253.3859.0757c.2461.1012.4421.2957.5451.541.1031.2453.1049.5214.0049.768l-1.606 3.971c-.0831.2042-.0818.4331.0038.6363.0857.2032.2485.364.4527.4472.2042.0831.4331.0818.6363-.0039.2032-.0856.3641-.2484.4472-.4526l.352-.8525v-.033l.429-1.067c.1012-.2461.2957-.4421.541-.5452.2453-.103.5214-.1048.768-.0048z" fill="#fff"/></svg>

<svg width="55" height="55" viewBox="0 0 55 55" fill="none" xmlns="http://www.w3.org/2000/svg">
<path d="M39.27 10.725C39.1158 10.5763 38.9099 10.4934 38.6957 10.4939C38.4815 10.4943 38.2759 10.578 38.1223 10.7273C37.9687 10.8766 37.8792 11.0798 37.8727 11.2939C37.8662 11.508 37.9433 11.7162 38.0875 11.8745L39.1875 13.0185H34.8425C34.6237 13.0185 34.4139 13.1054 34.2592 13.2601C34.1044 13.4149 34.0175 13.6247 34.0175 13.8435C34.0175 14.0623 34.1044 14.2721 34.2592 14.4269C34.4139 14.5816 34.6237 14.6685 34.8425 14.6685H39.193L38.093 15.8125C37.9488 15.9708 37.8717 16.179 37.8782 16.3931C37.8847 16.6072 37.9742 16.8104 38.1278 16.9597C38.2814 17.109 38.487 17.1927 38.7012 17.1931C38.9154 17.1936 39.1213 17.1107 39.2755 16.962L41.745 14.421C41.8945 14.267 41.9782 14.0609 41.9782 13.8462C41.9782 13.6316 41.8945 13.4255 41.745 13.2715L39.27 10.725Z" fill="black"/>
<path d="M32.3895 23.9965C32.1843 23.5138 31.8408 23.1027 31.4023 22.815C30.9638 22.5272 30.45 22.3757 29.9255 22.3795L32.23 16.676C32.4716 16.0856 32.4923 15.4278 32.2881 14.8234C32.0839 14.2189 31.6685 13.7084 31.1183 13.3855C30.5681 13.0626 29.9199 12.949 29.2926 13.0654C28.6654 13.1819 28.1012 13.5206 27.7035 14.0195C27.4022 13.6895 27.0221 13.4414 26.5988 13.2984C26.1754 13.1554 25.7227 13.1221 25.283 13.2018C24.8433 13.2815 24.4311 13.4715 24.0849 13.754C23.7387 14.0365 23.4698 14.4022 23.3035 14.817L19.624 23.8975L19.5855 23.694C19.5871 23.6628 19.5871 23.6316 19.5855 23.6005C19.4781 23.2657 19.304 22.9562 19.0739 22.6904C18.8437 22.4246 18.5622 22.2082 18.2462 22.0541C17.9302 21.8999 17.5863 21.8113 17.2352 21.7935C16.884 21.7757 16.5329 21.8291 16.203 21.9505C15.5864 22.1712 15.0749 22.615 14.7694 23.1944C14.4639 23.7737 14.3867 24.4465 14.553 25.08L16.577 35.75L15.158 39.2645C15.1133 39.3664 15.0898 39.4763 15.0887 39.5875C15.0876 39.6988 15.109 39.8091 15.1516 39.9119C15.1943 40.0146 15.2573 40.1077 15.3368 40.1855C15.4164 40.2633 15.5108 40.3242 15.6145 40.3645L25.729 44.451C25.8309 44.4956 25.9408 44.5192 26.052 44.5203C26.1633 44.5214 26.2736 44.5 26.3764 44.4573C26.4791 44.4147 26.5722 44.3517 26.65 44.2722C26.7278 44.1926 26.7887 44.0982 26.829 43.9945L28.2425 40.4965L31.2565 38.5C31.4001 38.4077 31.5115 38.2732 31.5755 38.115L35.0625 29.4855C35.1934 29.1619 35.2592 28.8157 35.2562 28.4667C35.2532 28.1177 35.1815 27.7727 35.0451 27.4514C34.9087 27.1302 34.7104 26.8389 34.4614 26.5943C34.2124 26.3497 33.9177 26.1566 33.594 26.026L33.506 25.9875C33.1705 25.8537 32.8111 25.7901 32.45 25.8005C32.6434 25.2109 32.6219 24.5718 32.3895 23.9965ZM32.89 27.5L32.978 27.5385C33.2241 27.6397 33.4201 27.8342 33.5231 28.0795C33.6262 28.3248 33.628 28.6009 33.528 28.8475L30.1455 37.2515L27.0985 39.1985C26.9549 39.2907 26.8434 39.4252 26.7795 39.5835L25.575 42.559L16.995 39.094L18.194 36.1185C18.2529 35.9719 18.2682 35.8115 18.238 35.6565L16.17 24.7115C16.17 24.7115 16.17 24.662 16.17 24.64C16.1038 24.4065 16.1282 24.1567 16.2384 23.9405C16.3485 23.7243 16.5362 23.5577 16.764 23.474C16.9997 23.3861 17.2605 23.3945 17.4901 23.4974C17.7196 23.6003 17.8994 23.7895 17.9905 24.024L18.5405 26.939C18.5746 27.1131 18.664 27.2716 18.7954 27.3909C18.9268 27.5102 19.0931 27.584 19.2697 27.6013C19.4463 27.6186 19.6238 27.5785 19.7758 27.4869C19.9278 27.3953 20.0462 27.2572 20.1135 27.093L24.838 15.4055C24.9403 15.159 25.1359 14.9629 25.382 14.8599C25.6282 14.7569 25.9051 14.7553 26.1525 14.8555C26.3986 14.9567 26.5946 15.1512 26.6976 15.3965C26.8007 15.6418 26.8025 15.9179 26.7025 16.1645L26.0425 17.8145L22.9405 25.476C22.8698 25.6764 22.8791 25.8964 22.9666 26.0902C23.0541 26.2839 23.213 26.4363 23.4102 26.5158C23.6073 26.5952 23.8276 26.5955 24.0249 26.5165C24.2223 26.4376 24.3815 26.2855 24.4695 26.092L28.2205 16.8025L28.831 15.2955C28.9309 15.0475 29.1253 14.8494 29.3713 14.7447C29.6173 14.64 29.8948 14.6373 30.1427 14.7372C30.3907 14.8372 30.5889 15.0315 30.6935 15.2775C30.7982 15.5235 30.8009 15.801 30.701 16.049L26.3395 26.84C26.2698 27.0222 26.267 27.2232 26.3315 27.4073C26.396 27.5915 26.5237 27.7468 26.6918 27.8457C26.86 27.9446 27.0577 27.9807 27.25 27.9476C27.4423 27.9145 27.6166 27.8144 27.742 27.665C27.792 27.6034 27.8328 27.5349 27.863 27.4615L29.0015 24.6455C29.0516 24.523 29.1253 24.4115 29.2185 24.3176C29.3117 24.2236 29.4226 24.1489 29.5447 24.0978C29.6668 24.0467 29.7977 24.0202 29.9301 24.0198C30.0625 24.0194 30.1936 24.0451 30.316 24.0955C30.5621 24.1967 30.7581 24.3912 30.8611 24.6365C30.9642 24.8818 30.966 25.1579 30.866 25.4045L29.26 29.3755C29.1769 29.5797 29.1782 29.8086 29.2638 30.0118C29.3495 30.215 29.5123 30.3758 29.7165 30.459C29.9207 30.5421 30.1496 30.5408 30.3528 30.4551C30.556 30.3695 30.7169 30.2067 30.8 30.0025L31.152 29.15V29.117L31.581 28.05C31.6822 27.8039 31.8767 27.6079 32.122 27.5048C32.3673 27.4018 32.6434 27.4 32.89 27.5Z" fill="black"/>
<path d="M32.89 27.5L32.978 27.5385C33.2241 27.6397 33.4201 27.8342 33.5231 28.0795C33.6262 28.3248 33.628 28.6009 33.528 28.8475L30.1455 37.2515L27.0985 39.1985C26.9549 39.2907 26.8434 39.4252 26.7795 39.5835L25.575 42.559L16.995 39.094L18.194 36.1185C18.2529 35.9719 18.2682 35.8115 18.238 35.6565L16.17 24.7115C16.17 24.7115 16.17 24.662 16.17 24.64C16.1038 24.4065 16.1282 24.1567 16.2384 23.9405C16.3485 23.7243 16.5362 23.5577 16.764 23.474C16.9997 23.3861 17.2605 23.3945 17.4901 23.4974C17.7196 23.6003 17.8994 23.7895 17.9905 24.024L18.5405 26.939C18.5746 27.1131 18.664 27.2716 18.7954 27.3909C18.9268 27.5102 19.0931 27.584 19.2697 27.6013C19.4463 27.6186 19.6238 27.5785 19.7758 27.4869C19.9278 27.3953 20.0462 27.2572 20.1135 27.093L24.838 15.4055C24.9403 15.159 25.1359 14.9629 25.382 14.8599C25.6282 14.7569 25.9051 14.7553 26.1525 14.8555C26.3986 14.9567 26.5946 15.1512 26.6976 15.3965C26.8007 15.6418 26.8025 15.9179 26.7025 16.1645L26.0425 17.8145L22.9405 25.476C22.8698 25.6764 22.8791 25.8964 22.9666 26.0902C23.0541 26.2839 23.213 26.4363 23.4102 26.5158C23.6073 26.5952 23.8276 26.5955 24.0249 26.5165C24.2223 26.4376 24.3815 26.2855 24.4695 26.092L28.2205 16.8025L28.831 15.2955C28.9309 15.0475 29.1253 14.8494 29.3713 14.7447C29.6173 14.64 29.8948 14.6373 30.1427 14.7372C30.3907 14.8372 30.5889 15.0315 30.6935 15.2775C30.7982 15.5235 30.8009 15.801 30.701 16.049L26.3395 26.84C26.2698 27.0222 26.267 27.2232 26.3315 27.4073C26.396 27.5915 26.5237 27.7468 26.6918 27.8457C26.86 27.9446 27.0577 27.9807 27.25 27.9476C27.4423 27.9145 27.6166 27.8144 27.742 27.665C27.792 27.6034 27.8328 27.5349 27.863 27.4615L29.0015 24.6455C29.0516 24.523 29.1253 24.4115 29.2185 24.3176C29.3117 24.2236 29.4226 24.1489 29.5447 24.0978C29.6668 24.0468 29.7977 24.0202 29.9301 24.0198C30.0625 24.0194 30.1936 24.0451 30.316 24.0955C30.5621 24.1967 30.7581 24.3912 30.8611 24.6365C30.9642 24.8818 30.966 25.1579 30.866 25.4045L29.26 29.3755C29.1769 29.5797 29.1782 29.8086 29.2638 30.0118C29.3495 30.215 29.5123 30.3758 29.7165 30.459C29.9207 30.5421 30.1496 30.5408 30.3528 30.4551C30.556 30.3695 30.7169 30.2067 30.8 30.0025L31.152 29.15V29.117L31.581 28.05C31.6822 27.8039 31.8767 27.6079 32.122 27.5048C32.3673 27.4018 32.6434 27.4 32.89 27.5Z" fill="white"/>
</svg>
